Suru++-Ubuntu/apps/scalable/calligrastage.svg

<svg width="256" height="256" version="1.1" viewBox="0 0 67.73 67.73" xmlns="http://www.w3.org/2000/svg" xmlns:xlink="http://www.w3.org/1999/xlink">
 <defs>
  <filter id="filter4460" x="-.01" y="-.01" width="1.026" height="1.023" style="color-interpolation-filters:sRGB">
   <feGaussianBlur stdDeviation="1.133"/>
  </filter>
  <linearGradient id="linearGradient4413" x1="256" x2="256" y1="138" y2="375" gradientUnits="userSpaceOnUse">
   <stop style="stop-color:#000000;stop-opacity:0" offset="0"/>
   <stop style="stop-color:#000000" offset=".505"/>
   <stop style="stop-color:#000000;stop-opacity:0" offset="1"/>
  </linearGradient>
  <linearGradient id="linearGradient1108" x1="296" x2="296" y1="-212" y2="236" gradientUnits="userSpaceOnUse">
   <stop style="stop-color:#ffffff" offset="0"/>
   <stop style="stop-color:#ffffff;stop-opacity:.09803922" offset=".125"/>
   <stop style="stop-color:#000000;stop-opacity:.09803922" offset=".925"/>
   <stop style="stop-color:#000000;stop-opacity:.49803922" offset="1"/>
  </linearGradient>
  <clipPath id="clipPath1082-3-7">
   <path d="M 361.9375,-212 C 507.2348,-212 528,-191.28677 528,-46.125 V 70.125 C 528,215.28618 507.2348,236 361.9375,236 H 214.0625 C 68.7652,236 48,215.28618 48,70.125 V -46.125 C 48,-191.28677 68.7652,-212 214.0625,-212 Z" style="fill:#8c59d9"/>
  </clipPath>
  <linearGradient id="linearGradient946" x1="24" x2="328" y1="28" y2="332" gradientTransform="matrix(.26970778 0 0 .26970778 -7.1289166 220.56049)" gradientUnits="userSpaceOnUse">
   <stop style="stop-color:#5884f4" offset="0"/>
   <stop style="stop-color:#80a3fa" offset="1"/>
  </linearGradient>
  <filter id="filter933" x="-.02" y="-.03" width="1.046" height="1.05" style="color-interpolation-filters:sRGB">
   <feGaussianBlur stdDeviation="2.32"/>
  </filter>
  <filter id="filter4569" x="-.01" y="-.01" width="1.023" height="1.025" style="color-interpolation-filters:sRGB">
   <feGaussianBlur stdDeviation="1.16"/>
  </filter>
  <radialGradient id="radialGradient940" cx="35.835" cy="262.635" r="14.914" gradientTransform="matrix(1,0,0,1.0850416,0,-22.334903)" gradientUnits="userSpaceOnUse">
   <stop style="stop-color:#f5f5f5" offset="0"/>
   <stop style="stop-color:#fbfbfb" offset="1"/>
  </radialGradient>
 </defs>
 <g transform="translate(0,-229.26666)">
  <path transform="matrix(.26970778 0 0 .26970778 -7.1289177 220.56049)" d="m188.96876 43.999995c72.64865 0 83.03125 10.356615 83.03125 82.937505v58.125c0 72.58059-10.3826 82.9375-83.03125 82.9375h-73.9375c-72.648654 0-83.031254-10.35691-83.031254-82.9375v-58.125c0-72.58089 10.3826-82.937505 83.031254-82.937505z" style="filter:url(#filter4569);opacity:.1"/>
  <path transform="matrix(.26970778 0 0 .26970778 -7.1289177 220.56049)" d="m188.96876 45.999995c72.64865 0 83.03125 10.356615 83.03125 82.937505v58.125c0 72.58059-10.3826 82.9375-83.03125 82.9375h-73.9375c-72.648654 0-83.031254-10.35691-83.031254-82.9375v-58.125c0-72.58089 10.3826-82.937505 83.031254-82.937505z" style="filter:url(#filter933);opacity:.2"/>
  <path d="m43.837427 232.42763c19.593907 0 22.394175 2.79326 22.394175 22.36889v15.67677c0 19.57555-2.800268 22.36888-22.394175 22.36888h-19.94152c-19.593906 0-22.394174-2.79333-22.394174-22.36888v-15.67677c0-19.57563 2.8002681-22.36889 22.394174-22.36889z" style="fill:url(#linearGradient946)"/>
  <path transform="matrix(.26458333 0 0 .26458333 0 229.26666)" d="m23.685547 23.628906c-1.19699 0.908329-2.412195 1.798305-3.460938 2.845703-1.48786 1.485954-2.831476 3.116425-4.042968 4.904297-1.211493 1.787873-2.291004 3.732049-3.251953 5.847656-0.96095 2.115608-1.802833 4.401935-2.539063 6.871094-0.7362301 2.469159-1.3669615 5.122176-1.9042969 7.970703-0.5373353 2.848527-0.9814382 5.892773-1.3457031 9.146485-0.3642649 3.253711-0.6482155 6.715678-0.8652344 10.40039-0.4340378 7.369426-0.5996094 15.626671-0.5996094 24.875v59.251956c2.4994258 73.94411 10.582963 84.54297 84.638672 84.54297h75.371097c9.25696 0 17.52167-0.16447 24.89843-0.59766 3.68838-0.21659 7.15505-0.49967 10.41211-0.86328 3.25707-0.36361 6.30468-0.8073 9.15625-1.34375 2.85158-0.53645 5.50661-1.16724 7.97852-1.90235 2.47191-0.7351 4.76084-1.57558 6.87891-2.53515 2.01215-0.91159 3.84695-1.94905 5.5625-3.08594l-206.88672-206.32812z" style="fill:#ffffff;opacity:.1"/>
  <path d="m28.919212 244.83419-4.745168 9.66312v7.99009c-0.666171 0.78054-1.394285 1.56707-2.153449 2.32623-2.495219 2.49522-5.292706 4.67765-7.164114 5.30145l-3.152209-3.148-9.6631249 4.74518v23.01787h34.522595v-42.82454c-2.07899-4.51001-4.364972-6.19265-7.64453-7.0714zm-13.156681 30.88154c9.52e-4 -5.3e-4 0.0032 5.3e-4 0.0042 0-0.352069 0.21986-0.708115 0.43513-1.066189 0.64899 0.358163-0.21383 0.709831-0.42916 1.061981-0.64899zm-3.249136 1.89638c0.0011-5.3e-4 0.0032 5.3e-4 0.0042 0-0.369748 0.20216-0.745555 0.40194-1.120973 0.59842 0.37547-0.19646 0.746964-0.39628 1.116765-0.59842z" style="fill-opacity:0;opacity:.05"/>
  <path transform="matrix(.13485389 0 0 .13485389 -4.9712555 261.01666)" d="M 361.9375,-212 C 507.2348,-212 528,-191.28677 528,-46.125 V 70.125 C 528,215.28618 507.2348,236 361.9375,236 H 214.0625 C 68.7652,236 48,215.28618 48,70.125 V -46.125 C 48,-191.28677 68.7652,-212 214.0625,-212 Z" clip-path="url(#clipPath1082-3-7)" style="fill:none;opacity:.4;stroke-linecap:round;stroke-linejoin:round;stroke-width:8;stroke:url(#linearGradient1108)"/>
  <path transform="matrix(.13485389 0 0 .13485389 -.03709705 228.1123)" d="m155.41127 137.99999v239.99999s121.72498-49.19762 221.18971-120.07579c0-0.0217-0.0115-0.0398-0.0253-0.0645-0.0115-0.0263-0.0264-0.0523-0.0448-0.0786-0.0191-0.026-0.0374-0.0533-0.0504-0.0786-0.0147-0.0262-0.0253-0.0526-0.0253-0.0758-104.91599-73.13856-221.04372-119.62658-221.04372-119.62658z" style="fill:url(#linearGradient4413);filter:url(#filter4415);opacity:.4"/>
  <path transform="matrix(.13485389 0 0 .13485389 -.03709705 228.1123)" d="m155.41127 137.99999v239.99999s121.72498-49.19762 221.18971-120.07579c0-0.0217-0.0115-0.0398-0.0253-0.0645-0.0115-0.0263-0.0264-0.0523-0.0448-0.0786-0.0191-0.026-0.0374-0.0533-0.0504-0.0786-0.0147-0.0262-0.0253-0.0526-0.0253-0.0758-104.91599-73.13856-221.04372-119.62658-221.04372-119.62658z" style="filter:url(#filter4460);opacity:.1"/>
  <path d="m20.920717 246.45243v32.36494s16.415084-6.63449 29.82829-16.19269c0-3e-3 -0.0016-5e-3 -0.0034-9e-3 -0.0016-4e-3 -0.0036-7e-3 -6e-3 -0.0106-0.0027-4e-3 -0.0051-7e-3 -0.0068-0.0106-0.0019-4e-3 -0.0034-7e-3 -0.0034-0.0102-14.14842-9.86273-29.808693-16.13182-29.808693-16.13182z" style="fill:url(#radialGradient940)"/>
  <path d="m20.92064 246.45243v0.26971s15.553919 6.22466 29.653557 16.02549c0.05815-0.0413 0.116816-0.0816 0.174889-0.123 0-3e-3 -0.0016-5e-3 -0.0034-9e-3 -0.0016-4e-3 -0.0036-7e-3 -0.0061-0.0106-0.0027-4e-3 -0.0051-7e-3 -0.0069-0.0106-0.0019-4e-3 -0.0034-7e-3 -0.0034-0.0103-14.148285-9.86255-29.808646-16.1317-29.808646-16.1317z" style="fill:#ffffff"/>
  <path transform="matrix(.26458333 0 0 .26458333 0 229.26666)" d="m25.277344 229.87305c1.754063 1.17425 3.646247 2.23365 5.71289 3.16992 2.11807 0.95957 4.406996 1.80005 6.878907 2.53515 2.47191 0.73511 5.126939 1.3659 7.978515 1.90235 2.851577 0.53645 5.899184 0.98014 9.15625 1.34375s6.723729 0.64669 10.41211 0.86328c7.37676 0.43319 15.641473 0.59766 24.898437 0.59766h75.371097c9.25696 0 17.52167-0.16447 24.89843-0.59766 3.68838-0.21659 7.15505-0.49967 10.41211-0.86328 3.25707-0.36361 6.30468-0.8073 9.15625-1.34375 2.85158-0.53645 5.50661-1.16724 7.97852-1.90235 2.47191-0.7351 4.76084-1.57558 6.87891-2.53515s4.06541-2.03819 5.85546-3.24805c1.79006-1.20985 3.4223-2.55115 4.91016-4.03711 1.48786-1.48595 2.83148-3.11642 4.04297-4.90429 1.21149-1.78788 2.291-3.73205 3.25195-5.84766s1.80283-4.40194 2.53907-6.87109c0.73623-2.46916 1.36696-5.12218 1.90429-7.97071 0.53734-2.84852 0.98144-5.89278 1.34571-9.14648 0.36426-3.25371 0.64821-6.71569 0.86523-10.40039 0.43404-7.36941 0.59961-15.62671 0.59961-24.875v-59.251956c0-9.248329-0.16557-17.505574-0.59961-24.875-0.21702-3.684712-0.50097-7.146679-0.86523-10.40039-0.36427-3.253712-0.80837-6.297958-1.34571-9.146485-0.53733-2.848527-1.16806-5.501544-1.90429-7.970703-0.73624-2.469159-1.57812-4.755486-2.53907-6.871094-0.96095-2.115607-2.04046-4.059783-3.25195-5.847656-1.21149-1.787872-2.55511-3.418343-4.04297-4.904297-1.48786-1.485953-3.1201-2.827257-4.91016-4.037109-0.03037-0.020532-0.06914-0.034232-0.09961-0.054688l-205.48828 207.49024z" style="fill:#ffffff;opacity:.1"/>
  <path transform="matrix(.26458333 0 0 .26458333 0 229.26666)" d="m9.9082031 261.97461c-2.364903 1.07535-4.4798243 1.9326-5.4296875 1.75391-0.9682807-0.18215-2.1130044-0.67969-3.2246094-1.11914 7.4495132 2.97916 24.948135 9.79826 23.263672 9.03515-1.197233-0.54242-8.12372-5.23618-14.609375-9.66992z" style="fill:#ffffff;opacity:.1"/>
  <path transform="matrix(.26458333 0 0 .26458333 0 229.26666)" d="m266.34375 33.820312c0.03646 0.088973-0.00732 0.263677 0.04297 0.337891 0.7316 1.079669 0.25825 0.154543-0.04297-0.337891z" style="fill:#ffffff;opacity:.1"/>
 </g>
</svg>

<svg xmlns="http://www.w3.org/2000/svg" xmlns:xlink="http://www.w3.org/1999/xlink" width="256" height="256" version="1.1" viewBox="0 0 67.73 67.73">
 <defs>
  <linearGradient id="linearGradient938">
   <stop style="stop-color:#f5f5f5" offset="0"/>
   <stop style="stop-color:#fbfbfb" offset="1"/>
  </linearGradient>
  <linearGradient id="linearGradient3650-7-9">
   <stop style="stop-color:#5884f4" offset="0"/>
   <stop offset="1" style="stop-color:#80a3fa"/>
  </linearGradient>
  <filter style="color-interpolation-filters:sRGB" id="filter4460" width="1.026" height="1.023" x="-.01" y="-.01">
   <feGaussianBlur stdDeviation="1.133"/>
  </filter>
  <linearGradient id="linearGradient4413" x1="256" x2="256" y1="138" y2="375" gradientUnits="userSpaceOnUse" xlink:href="#linearGradient4295"/>
  <linearGradient id="linearGradient4295">
   <stop style="stop-color:#000000;stop-opacity:0" offset="0"/>
   <stop offset=".505" style="stop-color:#000000"/>
   <stop style="stop-color:#000000;stop-opacity:0" offset="1"/>
  </linearGradient>
  <linearGradient id="linearGradient1108" x1="296" x2="296" y1="-212" y2="236" gradientUnits="userSpaceOnUse" xlink:href="#linearGradient1013"/>
  <linearGradient id="linearGradient1013">
   <stop offset="0" style="stop-color:#ffffff"/>
   <stop style="stop-color:#ffffff;stop-opacity:0.09803922" offset=".125"/>
   <stop style="stop-color:#000000;stop-opacity:0.09803922" offset=".925"/>
   <stop offset="1" style="stop-color:#000000;stop-opacity:0.49803922"/>
  </linearGradient>
  <clipPath id="clipPath1082-3-7" clipPathUnits="userSpaceOnUse">
   <path d="M 361.9375,-212 C 507.2348,-212 528,-191.28677 528,-46.125 V 70.125 C 528,215.28618 507.2348,236 361.9375,236 H 214.0625 C 68.7652,236 48,215.28618 48,70.125 V -46.125 C 48,-191.28677 68.7652,-212 214.0625,-212 Z" style="fill:#8c59d9"/>
  </clipPath>
  <linearGradient id="linearGradient946" x1="24" x2="328" y1="28" y2="332" gradientTransform="matrix(0.26970778,0,0,0.26970778,-7.1289166,220.56049)" gradientUnits="userSpaceOnUse" xlink:href="#linearGradient3650-7-9"/>
  <filter style="color-interpolation-filters:sRGB" id="filter933" width="1.046" height="1.05" x="-.02" y="-.03">
   <feGaussianBlur stdDeviation="2.32"/>
  </filter>
  <filter style="color-interpolation-filters:sRGB" id="filter4569" width="1.023" height="1.025" x="-.01" y="-.01">
   <feGaussianBlur stdDeviation="1.16"/>
  </filter>
  <radialGradient id="radialGradient940" cx="35.835" cy="262.635" r="14.914" fx="35.835" fy="262.635" gradientTransform="matrix(1,0,0,1.0850416,0,-22.334903)" gradientUnits="userSpaceOnUse" xlink:href="#linearGradient938"/>
 </defs>
 <g transform="translate(0,-229.26666)">
  <path d="m 188.96876,43.999995 c 72.64865,0 83.03125,10.356615 83.03125,82.937505 v 58.125 c 0,72.58059 -10.3826,82.9375 -83.03125,82.9375 h -73.9375 C 42.382606,268 32.000006,257.64309 32.000006,185.0625 v -58.125 c 0,-72.58089 10.3826,-82.937505 83.031254,-82.937505 z" transform="matrix(0.26970778,0,0,0.26970778,-7.1289177,220.56049)" style="opacity:0.1;filter:url(#filter4569)"/>
  <path style="opacity:0.2;filter:url(#filter933)" d="m 188.96876,45.999995 c 72.64865,0 83.03125,10.356615 83.03125,82.937505 v 58.125 c 0,72.58059 -10.3826,82.9375 -83.03125,82.9375 h -73.9375 C 42.382606,270 32.000006,259.64309 32.000006,187.0625 v -58.125 c 0,-72.58089 10.3826,-82.937505 83.031254,-82.937505 z" transform="matrix(0.26970778,0,0,0.26970778,-7.1289177,220.56049)"/>
  <path style="fill:url(#linearGradient946)" d="m 43.837427,232.42763 c 19.593907,0 22.394175,2.79326 22.394175,22.36889 v 15.67677 c 0,19.57555 -2.800268,22.36888 -22.394175,22.36888 h -19.94152 c -19.5939064,0 -22.3941745,-2.79333 -22.3941745,-22.36888 v -15.67677 c 0,-19.57563 2.8002681,-22.36889 22.3941745,-22.36889 z"/>
  <path style="opacity:0.1;fill:#ffffff" d="M 23.685547 23.628906 C 22.488557 24.537235 21.273352 25.427211 20.224609 26.474609 C 18.736749 27.960563 17.393133 29.591034 16.181641 31.378906 C 14.970148 33.166779 13.890637 35.110955 12.929688 37.226562 C 11.968738 39.34217 11.126855 41.628497 10.390625 44.097656 C 9.6543949 46.566815 9.0236635 49.219832 8.4863281 52.068359 C 7.9489928 54.916886 7.5048899 57.961132 7.140625 61.214844 C 6.7763601 64.468555 6.4924095 67.930522 6.2753906 71.615234 C 5.8413528 78.98466 5.6757812 87.241905 5.6757812 96.490234 L 5.6757812 155.74219 C 8.175207 229.6863 16.258744 240.28516 90.314453 240.28516 L 165.68555 240.28516 C 174.94251 240.28516 183.20722 240.12069 190.58398 239.6875 C 194.27236 239.47091 197.73903 239.18783 200.99609 238.82422 C 204.25316 238.46061 207.30077 238.01692 210.15234 237.48047 C 213.00392 236.94402 215.65895 236.31323 218.13086 235.57812 C 220.60277 234.84302 222.8917 234.00254 225.00977 233.04297 C 227.02192 232.13138 228.85672 231.09392 230.57227 229.95703 L 23.685547 23.628906 z" transform="matrix(0.26458333,0,0,0.26458333,0,229.26666)"/>
  <path d="m 28.919212,244.83419 -4.745168,9.66312 v 7.99009 c -0.666171,0.78054 -1.394285,1.56707 -2.153449,2.32623 -2.495219,2.49522 -5.292706,4.67765 -7.164114,5.30145 l -3.152209,-3.148 -9.6631249,4.74518 v 23.01787 H 36.563742 v -42.82454 c -2.07899,-4.51001 -4.364972,-6.19265 -7.64453,-7.0714 z m -13.156681,30.88154 c 9.52e-4,-5.3e-4 0.0032,5.3e-4 0.0042,0 -0.352069,0.21986 -0.708115,0.43513 -1.066189,0.64899 0.358163,-0.21383 0.709831,-0.42916 1.061981,-0.64899 z m -3.249136,1.89638 c 0.0011,-5.3e-4 0.0032,5.3e-4 0.0042,0 -0.369748,0.20216 -0.745555,0.40194 -1.120973,0.59842 0.37547,-0.19646 0.746964,-0.39628 1.116765,-0.59842 z" style="opacity:0.05;fill:#ff0000;fill-opacity:0"/>
  <path d="M 361.9375,-212 C 507.2348,-212 528,-191.28677 528,-46.125 V 70.125 C 528,215.28618 507.2348,236 361.9375,236 H 214.0625 C 68.7652,236 48,215.28618 48,70.125 V -46.125 C 48,-191.28677 68.7652,-212 214.0625,-212 Z" clip-path="url(#clipPath1082-3-7)" transform="matrix(0.13485389,0,0,0.13485389,-4.9712555,261.01666)" style="opacity:0.4;fill:none;stroke:url(#linearGradient1108);stroke-width:8;stroke-linecap:round;stroke-linejoin:round"/>
  <path d="m 155.41127,137.99999 v 239.99999 c 0,0 121.72498,-49.19762 221.18971,-120.07579 0,-0.0217 -0.0115,-0.0398 -0.0253,-0.0645 -0.0115,-0.0263 -0.0264,-0.0523 -0.0448,-0.0786 -0.0191,-0.026 -0.0374,-0.0533 -0.0504,-0.0786 -0.0147,-0.0262 -0.0253,-0.0526 -0.0253,-0.0758 C 271.53919,184.48813 155.41146,138.00011 155.41146,138.00011 Z" transform="matrix(0.13485389,0,0,0.13485389,-0.03709705,228.1123)" style="opacity:0.4;fill:url(#linearGradient4413);filter:url(#filter4415)"/>
  <path d="m 155.41127,137.99999 v 239.99999 c 0,0 121.72498,-49.19762 221.18971,-120.07579 0,-0.0217 -0.0115,-0.0398 -0.0253,-0.0645 -0.0115,-0.0263 -0.0264,-0.0523 -0.0448,-0.0786 -0.0191,-0.026 -0.0374,-0.0533 -0.0504,-0.0786 -0.0147,-0.0262 -0.0253,-0.0526 -0.0253,-0.0758 C 271.53919,184.48813 155.41146,138.00011 155.41146,138.00011 Z" transform="matrix(0.13485389,0,0,0.13485389,-0.03709705,228.1123)" style="opacity:0.1;filter:url(#filter4460)"/>
  <path style="fill:url(#radialGradient940)" d="m 20.920717,246.45243 v 32.36494 c 0,0 16.415084,-6.63449 29.82829,-16.19269 0,-0.003 -0.0016,-0.005 -0.0034,-0.009 -0.0016,-0.004 -0.0036,-0.007 -0.006,-0.0106 -0.0027,-0.004 -0.0051,-0.007 -0.0068,-0.0106 -0.0019,-0.004 -0.0034,-0.007 -0.0034,-0.0102 -14.14842,-9.86273 -29.808693,-16.13182 -29.808693,-16.13182 z"/>
  <path style="fill:#ffffff" d="m 20.92064,246.45243 v 0.26971 c 0,0 15.553919,6.22466 29.653557,16.02549 0.05815,-0.0413 0.116816,-0.0816 0.174889,-0.123 0,-0.003 -0.0016,-0.005 -0.0034,-0.009 -0.0016,-0.004 -0.0036,-0.007 -0.0061,-0.0106 -0.0027,-0.004 -0.0051,-0.007 -0.0069,-0.0106 -0.0019,-0.004 -0.0034,-0.007 -0.0034,-0.0103 -14.148285,-9.86255 -29.808646,-16.1317 -29.808646,-16.1317 z"/>
  <path style="opacity:0.1;fill:#ffffff" d="M 25.277344 229.87305 C 27.031407 231.0473 28.923591 232.1067 30.990234 233.04297 C 33.108304 234.00254 35.39723 234.84302 37.869141 235.57812 C 40.341051 236.31323 42.99608 236.94402 45.847656 237.48047 C 48.699233 238.01692 51.74684 238.46061 55.003906 238.82422 C 58.260972 239.18783 61.727635 239.47091 65.416016 239.6875 C 72.792776 240.12069 81.057489 240.28516 90.314453 240.28516 L 165.68555 240.28516 C 174.94251 240.28516 183.20722 240.12069 190.58398 239.6875 C 194.27236 239.47091 197.73903 239.18783 200.99609 238.82422 C 204.25316 238.46061 207.30077 238.01692 210.15234 237.48047 C 213.00392 236.94402 215.65895 236.31323 218.13086 235.57812 C 220.60277 234.84302 222.8917 234.00254 225.00977 233.04297 C 227.12784 232.0834 229.07518 231.00478 230.86523 229.79492 C 232.65529 228.58507 234.28753 227.24377 235.77539 225.75781 C 237.26325 224.27186 238.60687 222.64139 239.81836 220.85352 C 241.02985 219.06564 242.10936 217.12147 243.07031 215.00586 C 244.03126 212.89025 244.87314 210.60392 245.60938 208.13477 C 246.34561 205.66561 246.97634 203.01259 247.51367 200.16406 C 248.05101 197.31554 248.49511 194.27128 248.85938 191.01758 C 249.22364 187.76387 249.50759 184.30189 249.72461 180.61719 C 250.15865 173.24778 250.32422 164.99048 250.32422 155.74219 L 250.32422 96.490234 C 250.32422 87.241905 250.15865 78.98466 249.72461 71.615234 C 249.50759 67.930522 249.22364 64.468555 248.85938 61.214844 C 248.49511 57.961132 248.05101 54.916886 247.51367 52.068359 C 246.97634 49.219832 246.34561 46.566815 245.60938 44.097656 C 244.87314 41.628497 244.03126 39.34217 243.07031 37.226562 C 242.10936 35.110955 241.02985 33.166779 239.81836 31.378906 C 238.60687 29.591034 237.26325 27.960563 235.77539 26.474609 C 234.28753 24.988656 232.65529 23.647352 230.86523 22.4375 C 230.83486 22.416968 230.79609 22.403268 230.76562 22.382812 L 25.277344 229.87305 z" transform="matrix(0.26458333,0,0,0.26458333,0,229.26666)"/>
  <path style="opacity:0.1;fill:#ffffff" d="M 9.9082031 261.97461 C 7.5433001 263.04996 5.4283788 263.90721 4.4785156 263.72852 C 3.5102349 263.54637 2.3655112 263.04883 1.2539062 262.60938 C 8.7034194 265.58854 26.202041 272.40764 24.517578 271.64453 C 23.320345 271.10211 16.393858 266.40835 9.9082031 261.97461 z" transform="matrix(0.26458333,0,0,0.26458333,0,229.26666)"/>
  <path style="opacity:0.1;fill:#ffffff" d="M 266.34375 33.820312 C 266.38021 33.909285 266.33643 34.083989 266.38672 34.158203 C 267.11832 35.237872 266.64497 34.312746 266.34375 33.820312 z" transform="matrix(0.26458333,0,0,0.26458333,0,229.26666)"/>
 </g>
</svg>
